X: 39804
T: Theodore Street
R: reel
M: 4/4
K: Amixolydian
~A3 e ecde|Aeec decG|~A3 e ecde gaag edec|
~A3 e ecde|Aeec decG|~A3 e ecde|1 gaag edec:|2 gaag edef||
|:g2 gf g2 ag|effg =fedf|e ~A3 eAdA|c ~A3 GAB/c/d|
g2 gf ggag|effg fedf|e ~A3 dAcA-|1 ~A2 dA cAB/c/d:|2 ~A2 dA cAAG||

